svgs/light/carrot.svg

<svg xmlns="http://www.w3.org/2000/svg" viewBox="0 0 512 512"><!--! Font Awesome Pro 6.3.0 by @fontawesome - https://fontawesome.com License - https://fontawesome.com/license (Commercial License) Copyright 2023 Fonticons, Inc. --><path d="M504.6 138.6c-22.87-27.63-53.37-43.38-86.36-44.75c-1.625-32.13-17.12-63.5-44.74-86.38c-16.33-13.55-34.16-5.465-40.74 0c-27.25 22.63-43.12 53-44.62 85.88c-.75 14.5 1.75 28.63 6.625 42.13c-13.37-4.377-26.85-7.327-40.35-7.327c-47.99 0-94.11 26.76-116.6 72.76l-135.4 277.5c-9.631 20.06 11.33 40.88 31.31 31.25l277.5-135.5c24.1-12.25 46.43-32.63 59.55-59.63c15.5-31.5 16.73-66.13 6.48-97.13c11.87 4.125 23.1 6.627 36.5 6.627c34.62 0 66.99-15.88 90.86-44.63C514.5 167.6 514.5 150.3 504.6 138.6zM342.1 300.6c-9.623 19.75-25.25 35.25-44.87 44.88l-124.6 60.75L139.2 372.8c-6.125-6.248-16.38-6.248-22.5 0c-6.248 6.125-6.248 16.38 0 22.5l25.54 25.67l-100.1 49l111.9-229.3l26.63 26.58c6.07 6.322 16.5 6.334 22.58 0c6.248-6.125 6.248-16.46 0-22.58l-34.18-34.08c17.19-31.22 49.39-50.54 85.32-50.54c14.87 0 29.25 3.25 42.74 9.875c23.37 11.38 40.99 31.38 49.49 56C355.1 250.7 353.5 277.1 342.1 300.6zM413.7 192.1c-21.5 0-42.99-8.875-60.49-26.5l-6.748-6.75c-37.24-37-35.37-92 6.623-126.8c33.12 27.5 41.49 67.63 25.25 101.6c11.25-5.373 22.1-8 34.87-8c24.12 0 48.37 11.13 66.74 33.25C461.7 181.1 437.7 192.1 413.7 192.1z"/></svg>

<svg xmlns="http://www.w3.org/2000/svg" viewBox="0 0 512 512"><!-- Font Awesome Pro 6.0.0-alpha2 by @fontawesome - https://fontawesome.com License - https://fontawesome.com/license (Commercial License) --><path d="M504.596 138.561C481.723 110.934 451.229 95.184 418.233 93.807C416.608 61.682 401.112 30.307 373.491 7.43C357.159 -6.125 339.328 1.965 332.746 7.43C305.5 30.057 289.627 60.432 288.127 93.307C287.377 107.809 289.877 121.934 294.752 135.436C281.379 131.059 267.881 128.186 254.383 128.186C206.389 128.186 160.272 154.936 137.776 200.937L2.42 478.324C-7.211 498.387 13.686 519.205 33.666 509.574L311.248 374.07C336.244 361.818 357.618 341.441 370.741 314.441C386.239 282.939 387.489 248.314 377.239 217.312C389.112 221.437 401.237 223.939 413.735 223.939C448.354 223.939 480.723 208.062 504.596 179.311C514.469 167.562 514.469 150.311 504.596 138.561ZM342.119 300.566C332.496 320.316 316.873 335.818 297.25 345.443L172.651 406.195L139.276 372.818C133.151 366.57 122.903 366.57 116.778 372.818C110.53 378.943 110.53 389.193 116.778 395.32L142.274 420.945L42.164 469.947L154.022 240.689L180.768 267.314C186.838 273.637 197.186 273.648 203.266 267.314C209.514 261.189 209.514 250.939 203.266 244.812L169.059 210.605C186.246 179.385 218.448 160.061 254.383 160.061C269.256 160.061 283.629 163.311 297.125 169.936C320.498 181.311 338.119 201.313 346.619 225.938C355.118 250.689 353.493 277.064 342.119 300.566ZM413.735 192.062C392.237 192.062 370.741 183.187 353.243 165.561L346.494 158.811C309.25 121.809 311.123 66.807 353.118 32.057C386.239 59.557 394.612 99.684 378.364 133.684C389.612 128.311 401.36 125.684 413.235 125.684C437.356 125.684 461.602 136.811 479.973 158.936C461.727 181.061 437.731 192.062 413.735 192.062Z"/></svg>
